X:83
T:Playford simple chords 7
M:3/4
L:1/8
K:Bb
[g4G,,4] [^f2D,2F,2A,2C2] | =e^f [g4G,4B,4D4] | [d2C,,2] cB [AD,^F,A,C]B | c2 [B2G,2B,2D2] G2 | [g4G,,4] [a2F,2A,2C2E2] |
ga [b4B,4D4F4] | [f2E,,2] ed [cF,A,CE]d | e2 [d2B,2D2F2] B2 | [g4G,,4] [^f2D,2F,2A,2C2] |
=e^f [g4G,4B,4D4] | [d2C,,2] cB [AD,^F,A,C]B | c2 [B2G,2B,2D2] G2 | [g4G,,4] [a2F,2A,2C2E2] |
ga [b4B,4D4F4] | [f2E,,2] ed [cF,A,CE]d | e2 [d2B,2D2F2] B2 | [d2B,,2] f2 [B,2D2F2] |
f2 [f4B,4D4F4] | [c2F,,2] e2 [F,2A,2C2] | e2 [e4F,4A,4C4] | [B2G,,2] d2 [G,2B,2D2] |
d2 [d2G,2B,2D2] cB | [AC,,]B c2 [B2A,2^C2=E2G2] | AG [^F2D,2F,2A,2C2] D2 | [d2D,,2] a2 [D,2^F,2A,2C2] |
a2 [a2D,2^F,2A,2C2] d2 | [b2G,,2] a2 [g2D,2^F,2A,2C2] | ^f2 [g4G,4B,4D4] | [dB,,]e f2 [BB,DF]c |
d2 [AF,A,C]B c2 | [B2C,,2] G2 [G2D,2^F,2A,2C2] | ^F2 [G4G,4B,4D4] | [d2B,,2] f2 [B,2D2F2] |
f2 [f4B,4D4F4] | [c2F,,2] e2 [F,2A,2C2] | e2 [e4F,4A,4C4] | [B2G,,2] d2 [G,2B,2D2] |
d2 [d2G,2B,2D2] cB | [AC,,]B c2 [B2A,2^C2=E2G2] | AG [^F2D,2F,2A,2C2] D2 | [d2D,,2] a2 [D,2^F,2A,2C2] |
a2 [a2D,2^F,2A,2C2] d2 | [b2G,,2] a2 [g2D,2^F,2A,2C2] | ^f2 [g4G,4B,4D4] | [dB,,]e f2 [BB,DF]c |
d2 [AF,A,C]B c2 | [B2C,,2] G2 [G2D,2^F,2A,2C2] | ^F2 [G4G,4B,4D4] |


